X:1
T:Our Risen Savior!
T:Alonzo Judson Abbey
T:Our Risen Savior!
T:Public Domain
T:Public Domain
T:Public Domain
C:Alonzo Judson Abbey
Z:Public Domain
%%score ( 1 2 ) ( 3 4 )
L:1/8
M:3/4
K:Ab
V:1 treble 
V:2 treble 
V:3 bass 
V:4 bass 
V:1
 [Ec]>[=D=B] | [Ec]3 [CE] (3(GF)[DE] | [CE]2 [CA]2 [Ec]>[=D=B] | [Ec]3 [CE] (3(GF)[DE] | %4
w: 1.~To the|tomb so chill * and|ly, Friend- ly hands|the Sav- ior * bore;|
w: 2.~Je- sus|had to His * dis-|ples Clear- ly His|own death fore- * told;|
w: 3.~Je- sus|has in truth * a-|en, He was seen|to ma- ny * eyes;|
 [CA]4 [Ec]>[=D=B] | [Ec]3 [CE] (3(GF)[DE] | [CE]2 [CA]2 [DB][Ec] | [Fd][DB] (CB,) (B,D) | %8
w: His foes had|cru- ci- fied * Him,|when they could mock|no more, Then * a *|
w: that death had|pow- er on- * ly|three days His form|to hold; And * just *|
w: He lives, our|Me- di- at- * or,|the heav’n- ly par-|a- dise; We * shall *|
 [CA]4 [GB]>[^F=A] | [GB]2 E2 (3(EA)[GB] | [Ac]2 [Ac]2 [GB]>[^F=A] | [GB]3 E [GB][Ac] | %12
w: Ro- man sol-|diers By the * spot|to stay, Lest, they|said, that His dis-|
w: time was end-|ed, Lo! new * life|ior found, And the|sol- diers all were|
w: cause He liv-|eth, We shall * see|èd face, Thro’ the|flight of end- less|
 [Gd]4 [Ec]>[=D=B] | [Ec]3 [CE] (3(GF)[DE] | [CE]2 [EA]2 [FB][Fc] | [Fd][FB] [EA]2 [EG]2 | [EA]4 || %17
w: ples Should His|bo- dy take * a-|Might- y Sav- ior!|We a- dore Thee,|We|
w: ened, And like|dead men fell * a-||||
w: es, Sin- ners|saved by match- * less||||
"^Refrain" (3(ef)[Ae] | [Ae]2 E2 (3([CE][EA])[EB] | [Ec]2 [Ae]2 (3(ef)[Ae] | %20
w: Thy * re-|rect- ion own; * We|love, and we * will|
w: |||
w: |||
 [Ae][Ac] (Be) ([Fe][A=d]) | [Ge]4 (3([Ec]3/2[=D=B]/)[F=d] | [Ec]2 [CA]2 (3([CE][EA])[EB] | %23
w: Thee, We will * make *|good- ness * known.||
w: |||
w: |||
 [Ec]2 [_Ge]2 [FB][Fc] | [Fd][FB] [EA]2 [EG]2 | [EA]4 |] %26
w: |||
w: |||
w: |||
V:2
 x2 | x4 D2 | x6 | x4 D2 | x6 | x4 D2 | x6 | x2 A2 G2 | x6 | x2 E2 E2 | x6 | x3 E x2 | x6 | x4 D2 | %14
w: |lone-||When||And||guard of||were made||ci-||way!|
w: |ci-||And||For||when the||the Sav-||fright-||round.|
w: |ris-||And||In||live be-||His bless-||ag-||grace.|
 x6 | x6 | x4 || A2 | x2 E2 x2 | x4 A2 | x2 G2 x2 | x6 | x6 | x6 | x6 | x4 |] %26
w: |||sur-|will|serve|Thy||||||
w: ||||||||||||
w: ||||||||||||
V:3
 A,2 | A,,2 A,2 (3:2:2[E,B,]2 [E,G,] | A,,2 A,2 A,2 | A,,2 A,2 (3:2:2[E,B,]2 [E,G,] | %4
 A,,2 A,2 A,2 | A,,2 A,2 (3:2:2[E,B,]2 [E,G,] | A,,2 A,2 D,C, | B,,D, E,2 E,2 | A,,4 [E,D]>[E,C] | %9
 [E,D]2 [E,D]2 (3:2:2[E,C]2 [E,E] | [A,E]2 [A,E]2 [E,C]>[E,C] | [E,D]3 [E,D] [E,D][E,C] | %12
 [E,B,]4 A,>A, | A,2 A,2 (3:2:2[E,B,]2 [E,G,] | A,2 [_A,C]2 [D,B,][C,=A,] | %15
 [B,,B,][D,B,] (CB,) (B,D) | [A,,E]4 || (3(CD)[A,C] | [A,C]2 [A,C]2 (3(A,,C,)[E,G,] | %19
 A,2 [A,C]2 (3(CD)[A,C] | [A,C][A,E] [B,E]2 [B,,B,]2 | [E,B,]4 [A,,A,]>[A,,A,] | %22
 [A,,A,]2 [A,,A,]2 (3(A,,C,)[E,G,] | A,2 [C,=A,]2 [D,B,][C,A,] | [B,,B,][D,B,] (CB,) (B,D) | %25
 [A,,C]4 |] %26
V:4
 x2 | x6 | x6 | x6 | x6 | x6 | x6 | x6 | x6 | x6 | x6 | x6 | x4 A,>A, | A,2 A,2 x2 | =A,2 x4 | %15
 x2 E,2 E,2 | x4 || A,2 | x4 A,2 | A,2 A,2 x2 | x6 | x6 | x4 A,2 | =A,2 x4 | x2 E,2 E,2 | x4 |] %26

